src/assets/bg/stamp-left-center.svg

<svg width="499" height="1204" fill="none" xmlns="http://www.w3.org/2000/svg"><g opacity=".7" fill-rule="evenodd" clip-rule="evenodd"><path opacity=".1" d="M253.765 796.219c-.36-18.737-.676-36.421 3.853-48.837 4.899-13.387 16.904-27.263 29.613-41.923 19.179-22.206 40.952-47.332 42.118-78.757 1.142-31.702-18.937-58.396-36.651-81.945-11.536-15.332-22.405-29.864-26.229-43.174-3.707-13.106-2.088-31.02-.368-49.985 2.669-29.564 5.732-63.064-12.165-89.665-15.674-23.087-47.194-34.853-76.414-43.747-18.838-5.75-36.581-11.199-48.178-20.26-11.585-9.051-21.165-24.948-31.301-41.836-15.76-26.192-34.776-53.964-60.934-63.561-30.141-10.93-61.923.076-89.98 9.861-17.935 6.241-34.925 12.146-48.538 11.72-13.928-.45-30.62-7.505-48.287-14.99-27.101-11.464-57.864-24.435-88.38-15.664-30.157 8.644-49.297 35.884-66.192 59.873-11.151 15.952-21.736 30.918-33.479 38.903-10.925 7.363-28.186 11.369-46.454 15.553-29.128 6.687-62.175 14.278-82.349 40.098-20.146 25.786-19.553 59.641-19.01 89.565.36 18.737.675 36.42-3.874 48.839-4.878 13.385-16.883 27.261-29.593 41.92-19.189 22.198-40.963 47.324-42.117 78.757-1.163 31.705 18.936 58.396 36.651 81.946 11.536 15.332 22.393 29.855 26.218 43.165 3.707 13.106 2.087 31.019.37 50.005-2.669 29.565-5.723 63.052 12.165 89.666 15.621 22.989 47.223 34.745 76.423 43.735 18.811 5.784 36.572 11.211 48.157 20.262 11.597 9.06 21.177 24.958 31.322 41.834 11.403 19.026 23.276 38.683 40.355 52.023 6.458 5.05 13.378 8.93 20.524 11.51 30.162 10.93 61.923-.07 89.991-9.85 17.924-6.25 34.914-12.15 48.571-11.71 13.893.42 30.596 7.48 48.298 15 27.101 11.46 57.816 24.47 88.344 15.71 30.146-8.66 49.294-35.91 66.228-59.922 11.177-15.913 21.736-30.919 33.504-38.865 10.934-7.374 28.196-11.381 46.464-15.564 29.1-6.653 62.139-14.232 82.339-40.087 20.112-25.813 19.516-59.688 18.985-89.603z" fill="url(#paint0_linear)"/><path opacity=".15" d="M223.767 780.436c-.38-17.094-.717-33.225 3.386-44.539 4.438-12.198 15.367-24.823 26.938-38.16 17.459-20.204 37.282-43.064 38.26-71.726.956-28.916-17.461-53.321-33.709-74.852-10.581-14.018-20.551-27.304-24.082-39.456-3.422-11.965-1.992-28.302-.473-45.597 2.356-26.961 5.063-57.511-11.361-81.827-14.384-21.102-43.212-31.922-69.931-40.116-17.226-5.297-33.45-10.317-44.07-18.614-10.609-8.288-19.404-22.816-28.711-38.249-14.47-23.936-31.919-49.322-55.843-58.149-27.567-10.053-56.571-.101-82.176 8.748-16.368 5.643-31.873 10.983-44.312 10.556-12.725-.448-27.994-6.93-44.155-13.806-24.79-10.532-52.93-22.45-80.784-14.533-27.528 7.802-44.938 32.597-60.307 54.434-10.143 14.52-19.772 28.144-30.478 35.395-9.961 6.687-25.719 10.294-42.397 14.059-26.592 6.02-56.762 12.853-75.121 36.351-18.334 23.466-17.699 54.35-17.121 81.648.381 17.094.718 33.225-3.404 44.541-4.42 12.196-15.349 24.821-26.919 38.158-17.47 20.196-37.293 43.056-38.261 71.726-.974 28.918 17.461 53.321 33.709 74.852 10.582 14.018 20.541 27.296 24.072 39.447 3.422 11.966 1.992 28.302.475 45.616-2.356 26.962-5.054 57.501 11.362 81.827 14.334 21.014 43.237 31.825 69.938 40.106 17.202 5.328 33.443 10.327 44.052 18.616 10.619 8.297 19.415 22.825 28.73 38.247 10.47 17.387 21.371 35.348 37.011 47.567 5.914 4.62 12.246 8.185 18.781 10.559 27.586 10.055 56.572.101 82.187-8.739 16.358-5.652 31.863-10.991 44.341-10.551 12.694.424 27.973 6.914 44.165 13.815 24.79 10.532 52.888 22.48 80.752 14.57 27.517-7.805 44.935-32.611 60.34-54.471 10.166-14.485 19.772-28.144 30.501-35.36 9.97-6.697 25.728-10.304 42.405-14.07 26.568-5.988 56.73-12.811 75.113-36.34 18.302-23.491 17.665-54.394 17.097-81.683z" fill="url(#paint1_linear)"/><path opacity=".2" d="M185.452 762.789c-.296-15.325-.556-29.787 3.146-39.941 4.006-10.948 13.823-22.295 24.216-34.283 15.684-18.159 33.489-38.706 34.439-64.406.931-25.927-15.494-47.761-29.985-67.022-9.437-12.541-18.327-24.427-21.457-35.312-3.033-10.719-1.711-25.37-.306-40.88 2.179-24.179 4.681-51.576-9.959-73.333-12.823-18.883-38.604-28.509-62.504-35.787-15.408-4.704-29.92-9.163-39.406-16.574-9.477-7.403-17.314-20.406-25.606-34.219-12.893-21.422-28.448-44.137-49.844-51.989-24.654-8.942-50.647.056-73.593 8.056-14.669 5.101-28.564 9.929-39.698 9.579-11.392-.369-25.044-6.141-39.495-12.264-22.167-9.379-47.329-19.991-72.287-12.821-24.665 7.066-40.316 29.342-54.132 48.96-9.119 13.045-17.775 25.284-27.378 31.813-8.935 6.021-23.052 9.295-37.993 12.715-23.823 5.466-50.851 11.67-67.348 32.785-16.475 21.087-15.986 48.774-15.539 73.247.297 15.325.556 29.787-3.163 39.943-3.988 10.946-13.806 22.293-24.199 34.281-15.693 18.152-33.499 38.699-34.439 64.406-.948 25.929 15.494 47.76 29.985 67.022 9.437 12.541 18.318 24.419 21.448 35.305 3.033 10.719 1.711 25.369.308 40.896-2.179 24.179-4.674 51.566 9.959 73.334 12.779 18.803 38.627 28.421 62.511 35.777 15.386 4.732 29.913 9.172 39.39 16.576 9.486 7.411 17.323 20.413 25.622 34.217 9.328 15.561 19.041 31.636 33.012 42.551 5.282 4.127 10.943 7.306 16.787 9.418 24.671 8.94 50.647-.056 73.602-8.048 14.66-5.109 28.555-9.937 39.725-9.574 11.363.347 25.025 6.126 39.504 12.271 22.167 9.379 47.29 20.021 72.258 12.858 24.655-7.073 40.313-29.358 54.161-48.997 9.14-13.013 17.775-25.284 27.399-31.781 8.942-6.031 23.06-9.305 38-12.725 23.801-5.438 50.822-11.632 67.341-32.776 16.446-21.108 15.956-48.813 15.518-73.278z" fill="url(#paint2_linear)"/></g><defs><linearGradient id="paint0_linear" x1="-471.411" y1="35.934" x2="-738.437" y2="757.349" gradientUnits="userSpaceOnUse"><stop stop-color="#14C39A"/><stop offset=".242" stop-color="#82A5AF"/><stop offset=".498" stop-color="#F785C4"/><stop offset=".768" stop-color="#34D2FB"/><stop offset="1" stop-color="#14C39A"/></linearGradient><linearGradient id="paint1_linear" x1="-440.833" y1="84.903" x2="-685.158" y2="741.361" gradientUnits="userSpaceOnUse"><stop stop-color="#14C39A"/><stop offset=".498" stop-color="#F785C4"/><stop offset=".768" stop-color="#34D2FB"/><stop offset="1" stop-color="#14C39A"/></linearGradient><linearGradient id="paint2_linear" x1="-407.747" y1="140.919" x2="-626.16" y2="730.859" gradientUnits="userSpaceOnUse"><stop stop-color="#14C39A"/><stop offset=".254" stop-color="#3BD2FA"/><stop offset=".498" stop-color="#F785C4"/><stop offset=".768" stop-color="#34D2FB"/><stop offset="1" stop-color="#14C39A"/></linearGradient></defs></svg>

<svg width="499" height="1204" viewBox="0 0 499 1204" fill="none" xmlns="http://www.w3.org/2000/svg">
<g opacity="0.7">
<path opacity="0.1" fill-rule="evenodd" clip-rule="evenodd" d="M253.765 796.219C253.405 777.482 253.089 759.798 257.618 747.382C262.517 733.995 274.522 720.119 287.231 705.459C306.41 683.253 328.183 658.127 329.349 626.702C330.491 595 310.412 568.306 292.698 544.757C281.162 529.425 270.293 514.893 266.469 501.583C262.762 488.477 264.381 470.563 266.101 451.598C268.77 422.034 271.833 388.534 253.936 361.933C238.262 338.846 206.742 327.08 177.522 318.186C158.684 312.436 140.941 306.987 129.344 297.926C117.759 288.875 108.179 272.978 98.0429 256.09C82.2826 229.898 63.2675 202.126 37.1092 192.529C6.96789 181.599 -24.814 192.605 -52.8705 202.39C-70.8061 208.631 -87.7958 214.536 -101.409 214.11C-115.337 213.66 -132.029 206.605 -149.696 199.12C-176.797 187.656 -207.56 174.685 -238.076 183.456C-268.233 192.1 -287.373 219.34 -304.268 243.329C-315.419 259.281 -326.004 274.247 -337.747 282.232C-348.672 289.595 -365.933 293.601 -384.201 297.785C-413.329 304.472 -446.376 312.063 -466.55 337.883C-486.696 363.669 -486.103 397.524 -485.56 427.448C-485.2 446.185 -484.885 463.868 -489.434 476.287C-494.312 489.672 -506.317 503.548 -519.027 518.207C-538.216 540.405 -559.99 565.531 -561.144 596.964C-562.307 628.669 -542.208 655.36 -524.493 678.91C-512.957 694.242 -502.1 708.765 -498.275 722.075C-494.568 735.181 -496.188 753.094 -497.905 772.08C-500.574 801.645 -503.628 835.132 -485.74 861.746C-470.119 884.735 -438.517 896.491 -409.317 905.481C-390.506 911.265 -372.745 916.692 -361.16 925.743C-349.563 934.803 -339.983 950.701 -329.838 967.577C-318.435 986.603 -306.562 1006.26 -289.483 1019.6C-283.025 1024.65 -276.105 1028.53 -268.959 1031.11C-238.797 1042.04 -207.036 1031.04 -178.968 1021.26C-161.044 1015.01 -144.054 1009.11 -130.397 1009.55C-116.504 1009.97 -99.8008 1017.03 -82.099 1024.55C-54.9978 1036.01 -24.2827 1049.02 6.24465 1040.26C36.3907 1031.6 55.539 1004.35 72.4729 980.338C83.6495 964.425 94.2091 949.419 105.977 941.473C116.911 934.099 134.173 930.092 152.441 925.909C181.541 919.256 214.58 911.677 234.78 885.822C254.892 860.009 254.296 826.134 253.765 796.219Z" fill="url(#paint0_linear)"/>
<path opacity="0.15" fill-rule="evenodd" clip-rule="evenodd" d="M223.767 780.436C223.387 763.342 223.05 747.211 227.153 735.897C231.591 723.699 242.52 711.074 254.091 697.737C271.55 677.533 291.373 654.673 292.351 626.011C293.307 597.095 274.89 572.69 258.642 551.159C248.061 537.141 238.091 523.855 234.56 511.703C231.138 499.738 232.568 483.401 234.087 466.106C236.443 439.145 239.15 408.595 222.726 384.279C208.342 363.177 179.514 352.357 152.795 344.163C135.569 338.866 119.345 333.846 108.725 325.549C98.1163 317.261 89.3205 302.733 80.0138 287.3C65.5433 263.364 48.0951 237.978 24.171 229.151C-3.39555 219.098 -32.4003 229.05 -58.0051 237.899C-74.3734 243.542 -89.8785 248.882 -102.317 248.455C-115.042 248.007 -130.311 241.525 -146.472 234.649C-171.262 224.117 -199.402 212.199 -227.256 220.116C-254.784 227.918 -272.194 252.713 -287.563 274.55C-297.706 289.07 -307.335 302.694 -318.041 309.945C-328.002 316.632 -343.76 320.239 -360.438 324.004C-387.03 330.024 -417.2 336.857 -435.559 360.355C-453.893 383.821 -453.258 414.705 -452.68 442.003C-452.299 459.097 -451.962 475.228 -456.084 486.544C-460.504 498.74 -471.433 511.365 -483.003 524.702C-500.473 544.898 -520.296 567.758 -521.264 596.428C-522.238 625.346 -503.803 649.749 -487.555 671.28C-476.973 685.298 -467.014 698.576 -463.483 710.727C-460.061 722.693 -461.491 739.029 -463.008 756.343C-465.364 783.305 -468.062 813.844 -451.646 838.17C-437.312 859.184 -408.409 869.995 -381.708 878.276C-364.506 883.604 -348.265 888.603 -337.656 896.892C-327.037 905.189 -318.241 919.717 -308.926 935.139C-298.456 952.526 -287.555 970.487 -271.915 982.706C-266.001 987.326 -259.669 990.891 -253.134 993.265C-225.548 1003.32 -196.562 993.366 -170.947 984.526C-154.589 978.874 -139.084 973.535 -126.606 973.975C-113.912 974.399 -98.6333 980.889 -82.4406 987.79C-57.6501 998.322 -29.5535 1010.27 -1.68865 1002.36C25.8282 994.555 43.2464 969.749 58.6507 947.889C68.8174 933.404 78.4231 919.745 89.1524 912.529C99.1211 905.832 114.88 902.225 131.557 898.459C158.125 892.471 188.287 885.648 206.67 862.119C224.972 838.628 224.335 807.725 223.767 780.436Z" fill="url(#paint1_linear)"/>
<path opacity="0.2" fill-rule="evenodd" clip-rule="evenodd" d="M185.452 762.789C185.156 747.464 184.896 733.002 188.598 722.848C192.604 711.9 202.421 700.553 212.814 688.565C228.498 670.406 246.303 649.859 247.253 624.159C248.184 598.232 231.759 576.398 217.268 557.137C207.831 544.596 198.941 532.71 195.811 521.825C192.778 511.106 194.1 496.455 195.505 480.945C197.684 456.766 200.186 429.369 185.546 407.612C172.723 388.729 146.942 379.103 123.042 371.825C107.634 367.121 93.1216 362.662 83.6358 355.251C74.1593 347.848 66.3222 334.845 58.0301 321.032C45.1371 299.61 29.5818 276.895 8.18602 269.043C-16.4675 260.101 -42.4605 269.099 -65.4068 277.099C-80.0755 282.2 -93.9707 287.028 -105.105 286.678C-116.497 286.309 -130.149 280.537 -144.6 274.414C-166.767 265.035 -191.929 254.423 -216.887 261.593C-241.552 268.659 -257.203 290.935 -271.019 310.553C-280.138 323.598 -288.794 335.837 -298.397 342.366C-307.332 348.387 -321.449 351.661 -336.39 355.081C-360.213 360.547 -387.241 366.751 -403.738 387.866C-420.213 408.953 -419.724 436.64 -419.277 461.113C-418.98 476.438 -418.721 490.9 -422.44 501.056C-426.428 512.002 -436.246 523.349 -446.639 535.337C-462.332 553.489 -480.138 574.036 -481.078 599.743C-482.026 625.672 -465.584 647.503 -451.093 666.765C-441.656 679.306 -432.775 691.184 -429.645 702.07C-426.612 712.789 -427.934 727.439 -429.337 742.966C-431.516 767.145 -434.011 794.532 -419.378 816.3C-406.599 835.103 -380.751 844.721 -356.867 852.077C-341.481 856.809 -326.954 861.249 -317.477 868.653C-307.991 876.064 -300.154 889.066 -291.855 902.87C-282.527 918.431 -272.814 934.506 -258.843 945.421C-253.561 949.548 -247.9 952.727 -242.056 954.839C-217.385 963.779 -191.409 954.783 -168.454 946.791C-153.794 941.682 -139.899 936.854 -128.729 937.217C-117.366 937.564 -103.704 943.343 -89.2246 949.488C-67.0576 958.867 -41.9344 969.509 -16.9672 962.346C7.68812 955.273 23.3465 932.988 37.1941 913.349C46.3336 900.336 54.9687 888.065 64.593 881.568C73.535 875.537 87.6525 872.263 102.593 868.843C126.394 863.405 153.415 857.211 169.934 836.067C186.38 814.959 185.89 787.254 185.452 762.789Z" fill="url(#paint2_linear)"/>
</g>
<defs>
<linearGradient id="paint0_linear" x1="-471.411" y1="35.9341" x2="-738.437" y2="757.349" gradientUnits="userSpaceOnUse">
<stop stop-color="#14C39A"/>
<stop offset="0.241631" stop-color="#82A5AF"/>
<stop offset="0.498235" stop-color="#F785C4"/>
<stop offset="0.768449" stop-color="#34D2FB"/>
<stop offset="1" stop-color="#14C39A"/>
</linearGradient>
<linearGradient id="paint1_linear" x1="-440.833" y1="84.9032" x2="-685.158" y2="741.361" gradientUnits="userSpaceOnUse">
<stop stop-color="#14C39A"/>
<stop offset="0.498235" stop-color="#F785C4"/>
<stop offset="0.768449" stop-color="#34D2FB"/>
<stop offset="1" stop-color="#14C39A"/>
</linearGradient>
<linearGradient id="paint2_linear" x1="-407.747" y1="140.919" x2="-626.16" y2="730.859" gradientUnits="userSpaceOnUse">
<stop stop-color="#14C39A"/>
<stop offset="0.253773" stop-color="#3BD2FA"/>
<stop offset="0.498235" stop-color="#F785C4"/>
<stop offset="0.768449" stop-color="#34D2FB"/>
<stop offset="1" stop-color="#14C39A"/>
</linearGradient>
</defs>
</svg>
